assets/features/channel/europe-and-america/venmo.svg

<svg width="80" height="80" viewBox="0 0 80 80" fill="none" xmlns="http://www.w3.org/2000/svg">
<rect width="80" height="80" rx="8" fill="#3D95CE"/>
<path d="M58.7686 27.8943C58.7686 24.9339 58.2399 22.467 56.7595 20L44.4586 22.5022C45.4455 24.511 45.9389 26.4846 45.9389 29.4449C45.9389 34.837 41.9561 43.2599 38.9954 48.1938L35.5412 21.022L21.2312 22.0088L27.646 60H43.4717C50.38 51.1189 58.7686 37.7621 58.7686 27.8943Z" fill="white"/>
</svg>

<svg xmlns="http://www.w3.org/2000/svg" width="80" height="80" fill="none" viewBox="0 0 80 80"><rect width="80" height="80" fill="#3d95ce" rx="8"/><path fill="#fff" d="M58.769 27.894c0-2.96-.53-5.427-2.01-7.894l-12.3 2.502c.986 2.009 1.48 3.983 1.48 6.943 0 5.392-3.983 13.815-6.944 18.749l-3.454-27.172-14.31.987L27.646 60h15.826c6.908-8.881 15.297-22.238 15.297-32.106"/></svg>
